!!!COM: Schubert, Franz
!!!CNT: Deutscher
!!!TXO: Deutsch
!!!LYR: Karl Lappe
!!!OTL: "Der Einsame"
!!!OPS: Op. 41
!!!ODT: 1825/
!!NB: Vocal melody only encoded.
!!NB: Original key G major
**kern	**silbe
*clefG4	*
*k[b-]	*
*M4/4	*
*MM[massig ruhig]	*
=5	=5
2..r	.
{8c	{Wann
=6	=6
8c	mei-
8a	-ne
8a	Gril-
8a	-len
4a	schwir-
8g	-ren,
8f	bei
=7	=7
8e	Nacht,
8c	am
8d	spa2t
8e	er-
16f	-wa2rm-
16e	|
16f	-ten
16g	|
4f}	Herd,}
=8	=8
4r	.
8r	.
{8c	{dann
8c	sitz'
8a	ich
8a	mit
8a	ver-
=9	=9
8.a	-gnu2g-
16b-	-tem
8g	Sinn
8f	ver-
8e	-trau-
8c	-lich
8d	zu
8e	der
=10	=10
16f	Flam-
16e	|
16f	-me
16g	|
4f}	hin,}
4r	.
8r	.
{8c	{dann
=11	=11
8c	sitz'
8f	ich,
8a	mit
8cc	ver-
8.dd	gnu2g-
16b-	-tem
8g	Sinn,
8g	ver-
=12	=12
8.g	-trau-
16g	-lich
16a	zu
16g	|
16a	der
16b-	|
8.cc	Flam-
16a	-me
4f}	hin,}
=13	=13
4r	.
8r	.
{8c	{so
8.c	leicht
16f	so
8e	un-
8b-	-be-
=14	=14
4a	-schwert,
8r	.
8cc	so
8.ff	leicht,
16a	so
16dd	un-
16cc	|
16b-	-be-
16g	|
=15	=15
4f}	-schwert.}
2.r	.
=16	=16
2..r	.
{8f	{Ein
=17	=17
8.g	trau-
16f	-tes
16aq	stil-
8g	|
8f	-kes
4b-	Stu2nd-
8f	-chen
8r	.
=18	=18
8dd	bleibt
16cc	man
16a	noch
8f	gern
8e-	am
16d	Feu-
16c	|
16d	-er
16e-	|
4d}	wach.}
=19	=19
2r	.
8r	.
{8f	{Man
4b-	schu2rt,
=20	=20
8r	.
8f	wann
8f	sich
8b-	die
8.f	Lo-
16f	-he
8d	senkt,
8d	die
=21	=21
8.f	Fun-
16f	-ken
4b-}	auf,}
2r	.
=22	=22
2r	.
8r	.
{8a	{und
4b-}	sinnt}
=23	=23
2r	.
8r	.
{8dd	{und
4b-}	denkt:}
=24	=24
4r	.
8r	.
{8b-	{Nun
8.b-	a-
16a-	-ber-
8g	-mal
8f	ein
=25	=25
4g}	Tag!}
8r	.
{8b-	{nun
8.dd	a-
16cc	-ber-
8a-	-mal
8f	ein
=26	=26
4g}	Tag!}
2.r	.
=27	=27
2..r	.
{8c	{Was
=28	=28
8.c	Lie-
16an	-bes
8a	o-
8a	-der
4a	Lei-
8g	-des
8f	sein
=29	=29
8e	Lauf
8c	fu2r
8d	uns
8e	da-
16gq	-her
16f	|
16e	|
16f	ge-
16g	|
4f}	-bracht,}
=30	=30
4r	.
8r	.
{8c	{was
16c	Lie-
16a	|
8a	-bes
16a	o-
16cc	|
16b-	-der
16a	|
=31	=31
4a	Lie-
8g	-des
8f	sein
8e	Lauf
8c	fu2r
8d	uns
8e	da-
=32	=32
16f	-her
16e	|
16f	ge-
16g	|
4f}	-bracht,}
4r	.
8r	.
{8c	{es
=33	=33
8c	geht
8f	noch
8a	ein-
8cc	-mal
16dd	durch
16cc	|
16b-	den
16a	|
8.g	Sinn,
16g	al-
=34	=34
8.g	-lein
16g	das
16a	Bo2-
16g	|
16a	-se
16bn	|
8.cc	wirft
16c	man
[4c	hin
=35	=35
4c]}	|}
8r	.
{8c	{Es
8.c	sto2-
16f	-re
8e	nicht
8b-	die
=36	=36
4a	Nacht,
8r	.
8cc	es
8ff	sto2-
8a	-re
16dd	nicht
16cc	|
16b-	die
16g	|
=37	=37
4f}	Nacht.}
2.r	.
=38	=38
2..r	.
{8f	{Zu
=39	=39
8.g	ei-
16f	-nem
16aq	fro-
8g	|
8f	-hen
4b-	Trau-
8.f	-me
16dd	be-
=40	=40
8dd	-rei-
16cc	-tet
16a	|
8f	man
8e-	ge-
16d	-mach
16c	|
16d	sich
16e-	|
4d}	zu,}
=41	=41
2..r	.
{8f	{Wann
=42	=42
16dd	sor-
16ee-	|
16dd	-ge-
16cc	|
8b-	-los
8f	ein
8a	hol-
8cc	-des
8b-	Bild
8f	mit
=43	=43
16dd	sanf-
16ee-	|
16dd	-ter
16cc	|
8b-	Lust
8f	die
8a	See-
8cc	-le
4b-}	fu2llt,}
=44	=44
4r	.
8r	.
{8b-	{er-
8b-	-gibt
8b-	man
12b-	sich
12a	|
12g	der
=45	=45
4.a	Ruh',
16dd	er-
16a	|
8.a	-gibt
16g	man
8f#	sich
8en	der
=46	=46
4d}	Ruh'.}
2.r	.
=48	=48
4r	.
8r	.
{8d	{O
8.d	wie
16d	ich
8d	mit
8d	ge-
=49	=49
8.d	-fal-
16g	|
8g	-le
8g	in
8.fn	mei-
16f	-ner
8f	stil-
8f	-len
=50	=50
8f	La2nd-
16g	-lich-
16a	|
4b-}	-keit!}
4r	.
8r	.
{8d	{Was
=51	=51
8b-	in
8a	dem
8g	Schwarm
8f#	der
8.g	lau-
16d	-ten
8d	Welt
8d	das
=52	=52
8b-	ir-
8a	-re
8g	Herz
8f#	ge-
8.g	-fes-
16d	-selt
4d}	ha2lt,}
=53	=53
4r	.
8r	.
{8a	{gibt
8.a	nicht
16g	Zu-
8en	-frie-
8f	-den-
=54	=54
4d	-heit,
8r	.
16dd	gibt
16a	|
8.a	nicht
16g	Zu-
8e	-frie-
8f	-den-
=55	=55
4d}	-heit.}
4r	.
2r	.
=56	=56
2..r	.
{8c	{Zirpt
=57	=57
16c	im-
16a	|
8a	-mer,
8a	lie-
8a	-be
4a	Heim-
8g	-chen,
8f	in
=58	=58
8e	mei-
8c	-ner
8d	Klau-
8e	-se,
16f	eng
16e	|
16f	und
16g	|
4f}	klein,}
=59	=59
4r	.
8r	.
{8a	{zirpt
8.cc	im-
16a	-mer,
16a	lie-
16cc	|
16b-	-be
16a	|
=60	=60
4a	Heim-
8g	-chen,
8f	in
8e	mei-
8c	-ner
8d	Klau-
8e	-se
=61	=61
16f	eng
16e	|
16f	und
16g	|
4f}	klein.}
2r	.
=62	=62
8r	.
{8f	{Ich
8a	duld'
8cc	euch
4dd	gern:
8g}	|}
8r	.
=63	=63
4r	.
8r	.
{8dd	{ihr
8.cc	sto2rt
16a	mich
4f}	nicht.}
=64	=64
2..r	.
{8f	{Wann
=65	=65
4.f	eu-
8f	-er
4g	Lied
4a	das
=66	=66
4.cc	Schwei-
8b-	-gen
2b-}	bricht,}
=68	=68
4r	.
8r	.
{8dd	{bin
8c	ich
8f	nicht
8e	ganz
8b-	al-
=69	=69
4a}	-lein,}
8r	.
{8cc	{bin
8ff	ich
8a	nicht
16dd	ganz
16cc	|
16ccq	al-
32b-	|
32a	|
32b-	|
32g	|
=70	=70
4f}	-lein.
4r	.
4r	.
8r	.
{8f	{Wann
=71	=71
4.f	eu-
8f	-er
8g	Lied
8b-	|
8a	das
8cc	|
=72	=72
4.ee-	Schwei-
8dd	-gen
2dd}	bricht,}
=74	=74
4r	.
8r	.
{8dd	{bin
8c	ich
8f	night
8e	ganz
8b-	al-
=75	=75
4a}	-lein,}
8r	.
{8cc	{bin
8ff	ich
8a	nicht
16dd	ganz
16cc	|
16ccq	al-
32b-	|
32a	|
32b-	|
32g	|
=76	=76
4f}	-lein,}
4r	.
{2cc	{bin
=77	=77
4a	ich
8r	.
8a	nicht
4cc	ganz
16bn	al
16cc	|
16dd	|
16cc	|
=78	=78
2.f}	-lein.}
4r	.
*-	*-
